!!!!SEGMENT: pl-wtm--r-1443_stefani-jozef--spiewka-blazeja-z-operetki-piorun.krn
!!!cenid: 18xx:2459
!!!COM: Stefani, Józef
!!!COM-rismID: pe30024097
!!!CDT: 1800/04/16-1876/03/19
!!!CNT: Polish
!!!OTL: Śpiewka Błażeja z operetki Piorun
!!!PDT:
!!!AGN: Secular
!!!SMS-siglum: PL-Wtm
!!!SMS-shelfmark: R 1443
!!!SMS-shelfwork: W
!!!SMS-variant:
!!!SMS-altvar:
!!!NIFC-rismSourceID: 1001116456
!!!NIFC-rismChildID: 1001116456
!!!NIFC-islandoraID: pl-wtm:25720
!!!URL-pdf-islandora: https://repozytorium.nifc.pl/islandora/object/pl-wtm%3A25720/datastream/PDF/view
!!!URL-scan: https://polish.musicsources.pl/pl/lokalizacje/galeria/rekopisy/6259 @EN{Scan on Polish Music Sources Website} @PL{Skany w portalu Dziedzictwo Muzyki Polskiej w otwartym dostępie}
!!!ONB-nifc:
!!!AIN: 1 empty 2 piano
!!!key:
**kern	**kern	**dynam	**kern	**text	**text	**dynam
*part3	*part2	*part2	*part1	*part1	*part1	*part1
*staff3	*staff2	*	*staff1	*staff1	*staff1	*
*Ipiano	*Ipiano	*	*Iempty	*	*	*
*I"[Piano]	*I"Piano	*	*I"Błażej	*	*	*
*I'[pn]	*I'pn	*	*I'B	*	*	*
*clefF4	*clefG2	*	*clefG2	*	*	*
*k[f#]	*k[f#]	*	*k[f#]	*	*	*
*G:	*G:	*	*G:	*	*	*
*M3/4	*M3/4	*	*M3/4	*	*	*
=1	=1	=1	=1	=1	=1	=1
!	!	!	!LO:TX:a:t=Allegretto.	!	!	!
4GG/	8.dd\L 8.b'\	p	2.r	.	.	.
.	16ee\Jk 16cc'\	.	.	.	.	.
8B\ 8G\ 8D\	8dd\ 8b'\	.	.	.	.	.
8r	8r	.	.	.	.	.
4B\ 4G\ 4D\	4gg\ 4b'\	.	.	.	.	.
=2	=2	=2	=2	=2	=2	=2
4D/ 4DD/	8.ff#\L 8.dd'\	.	2.r	.	.	.
.	16gg\Jk 16ee'\	.	.	.	.	.
8c\ 8A\ 8F#\ 8D\	8aa\ 8ff#'\	.	.	.	.	.
8r	8r	.	.	.	.	.
4c\ 4A\ 4F#\ 4D\	4dd\|	.	.	.	.	.
=3	=3	=3	=3	=3	=3	=3
4..G/ 4..GG/	4..bb\ 4..gg\ 4..dd\|	mf	2.r	.	.	.
16B\ 16BB\	16bb\ 16gg\ 16dd\|	.	.	.	.	.
8.A/L 8.AA/	8.ccc\L 8.ff#\ 8.dd\|	.	.	.	.	.
16G/Jk 16GG/	16bb\Jk 16gg\ 16dd\|	.	.	.	.	.
=4	=4	=4	=4	=4	=4	=4
.	(8qbb/ (8qgg/	.	.	.	.	.
4D/ 4DD/	8.aa\L 8.ff#\))	.	2.r;	.	.	.
.	16gg#X\Jk 16ee#X\|	.	.	.	.	.
8d\ 8A\ 8F#\ 8D\	8aa\ 8ff#\|	.	.	.	.	.
8r	8r	.	.	.	.	.
8d\ 8A\ 8F#\ 8D\	8ddd\ 8ff#\ 8dd^\|	f	.	.	.	.
8r;	8r;	.	.	.	.	.
!!LO:LB:g=original
=5	=5	=5	=5	=5	=5	=5
4G/ 4GG/	4r	p	8.d/	To	Tak	.
.	.	.	16e/	iest	szam-	.
4r	8d/ 8B/	.	8d/	rze-	-pa-	.
.	8r	.	8r	.	.	.
4r	4g/ 4d/ 4B/	.	4g/	-czą	-na	.
=6	=6	=6	=6	=6	=6	=6
4D/ 4DD/	4r	.	8.f#/	do-	chęt-	.
.	.	.	16g/	-wie-	-nie	.
4r	8a/ 8f#/ 8d/	.	8a/	-dzio-	ły-	.
.	8r	.	8r	.	.	.
4r	4a/ 4f#/ 4d/	.	8d/	-ną	-ka	.
.	.	.	8d/	Że	Więc	.
=7	=7	=7	=7	=7	=7	=7
8qGG/	.	.	.	.	.	.
4..G\	4..b/ 4..g/ 4..d/	.	4b\	dziew-	cze-	.
.	.	.	8.b\	-cze	-muż	.
16B\	16dd/ 16g/ 16d/	.	16dd\	pło-	go	.
8.A\L	8.cc/L 8.f#/ 8.d/	.	8.cc\	-che	nam	.
16G\Jk	16b/Jk 16g/ 16d/	.	16b\	jak	nie-	.
=8	=8	=8	=8	=8	=8	=8
.	(8qb/ 8qg/	.	.	.	.	.
4D\	8.a/L 8.f#/)	.	4a/	ptak,	-ba	.
.	16g#X/Jk 16e#X/|	.	.	.	.	.
8d\	8a/ 8f#/|	.	4r	.	.	.
*clefG2	*	*	*	*	*	*
(32a/LLL	(32aa\LLL	.	.	.	.	.
32g/	32gg\	.	.	.	.	.
32f#/	32ff#\	.	.	.	.	.
32e/JJ	32ee\JJ)	.	.	.	.	.
8d/J)	8dd\J	.	4r	.	.	.
8r	8r	.	.	.	.	.
!!LO:LB:g=original
=9	=9	=9	=9	=9	=9	=9
!LO:CL:ed	!	!	!	!	!	!
*clefF4	*	*	*	*	*	*
!LO:TX:t=P:problem=powrót do klucza basowego (w nutach tego nie ma)	!	!	!	!	!	!
8G\ 8GG\	4r	p	8.d/	Kie-	Lecz	.
8r	.	.	.	.	.	.
.	.	.	16e/	-dy	przy	.
4r	8d/ 8B/	.	8d/	więc	so-	.
.	8r	.	8r	.	.	.
4r	4g/ 4d/ 4B/	.	4g/	zo-	-bie	.
=10	=10	=10	=10	=10	=10	=10
4D/ 4DD/	4r	.	8.f#/	-sta-	ma	.
.	.	.	16g/	-nie	mło-	.
4r	8a/ 8f#/ 8d/	.	8a/	żo-	-dzi-	.
.	8r	.	8r	.	.	.
4r	4a/ 4f#/ 4d/	.	4d/	-ną	-ka,	.
=11	=11	=11	=11	=11	=11	=11
4G/ 4GG/	4r	.	8.b/	Trze-	Ba-	.
.	.	.	16a/	-ba	-sia	.
4r	8g/ 8d/ 8B/	.	4g/	dob-	tak-	.
.	8r	.	.	.	.	.
4r	4b/ 4g/ 4d/	.	4b/	-rze	-że	.
=12	=12	=12	=12	=12	=12	=12
8.A\L 8.AA\	8.a/L 8.f#/ 8.d/	.	8.a/	zam-	tu	.
!	!	!	!	!	!	!LO:DY:a
16B\Jk 16BB\	16cc#X/Jk 16a/ 16g/ 16e/	.	16cc#X\	-knąć	być	f
8A\L 8D\	8dd\L 8a\ 8f#\	.	4dd\	szlak	ma	.
16r	16r	.	.	.	.	.
16d\Jk	16aa\Jk 16ff#\ 16dd\	f	.	.	.	.
8D\	8ddd\ 8ff#\ 8dd\	.	4r;	.	.	.
8r;	8r;	.	.	.	.	.
!!LO:LB:g=original
=13	=13	=13	=13	=13	=13	=13
*2\right	*	*	*	*	*	*
2.c\ 2.C\	8.ee\L 8.cc\	.	8.ee\	Mi-	Szam-	.
.	16ee\Jk 16cc\	.	16ee\	-łość	-pan	.
.	4a/ 4f#/	p	4a/	bo-	zbyt-	.
.	8b/L 8g/	.	(8b/L	-wiem	-nio	.
.	8cc/J 8a/	.	8cc/J)	.	.	.
=14	=14	=14	=14	=14	=14	=14
*	*^	*	*	*	*	*
8.B\L 8.BB\	8.dd/L 8.g/	4ryy	.	8.dd\	już	roz-	.
16B\Jk 16BB\	16dd/Jk 16g/	.	.	16dd\	wi-	-we-	.
4B\ 4BB\	4dd/	4g\	.	4dd\	-dzia-	-se-	.
4B\ 4E\	4g/	4e/	.	4g/	-łem	-la	.
*	*v	*v	*	*	*	*	*
=15	=15	=15	=15	=15	=15	=15
4C#X/ 4CC#X/	4r	.	8.a/	Nie-	To	.
.	.	.	16a/	-raz	żar-	.
4r	4a/ 4g/ 4e/	.	4b/	w ser-	-tow-	.
4r	4a/ 4g/ 4e/	.	4a/	-ce	-niś	.
=16	=16	=16	=16	=16	=16	=16
4D/ 4DD/	4r	.	(12a/L	strze-	niez-	.
.	.	.	12e/J)	.	.	.
.	.	.	12f#/	-li	-byt	.
4r	4a/ 4f#/ 4d/	.	4d/	żo-	zdro-	.
4r	4a/ 4f#/ 4d/	.	8d/	-ny,	-wy	.
.	.	.	8r	.	.	.
!!LO:PB:g=original
=17	=17	=17	=17	=17	=17	=17
4G\ 4GG\	4r	p	8.d/	A	W ser-	.
.	.	.	16e/	za	-ca	.
4r	4d/ 4B/	.	4d/	jed-	żon	.
4r	4g/ 4d/ 4B/	.	4g/	-nym	nie-	.
=18	=18	=18	=18	=18	=18	=18
4C/ 4CC/	4r	.	8.f#/	ta-	-chyb-	.
.	.	.	16e/	-kim	-nie	.
4r	4e/ 4c/	.	4ee\	strza-	strze-	.
8AA/ 8AAA/	8cc/ 8e/ 8c/	sf	8cc\	-łem	-la	.
8r;	8r;	.	8r;	.	.	.
=19	=19	=19	=19	=19	=19	=19
4D/ 4DD/	4r	.	8.d/	I	A	.
.	.	.	16e-X/	mąż	mał-	.
4r	4f#/ 4d/ 4c/ 4A</	.	4d/	w gło-	-żon-	.
4r	4f#/ 4d/ 4c/ 4A</	.	4f#/	-wę	-ków	.
!!LO:LB:g=original
=20	=20	=20	=20	=20	=20	=20
*	*^	*	*	*	*	*
4D/ 4DD/	4r	4ryy	.	8.b/	po-	tra-	.
.	.	.	.	16a/	-strze-	-fia	.
4r	4a/ 4f#/ 4d/ 4c/ 4A/	4ryy	.	4a/	-lo-	w gło-	.
4G\ 4GG\	4g/ 4d/ 4B/	4B\	.	4g/	-ny,	-wy.	.
*	*v	*v	*	*	*	*	*
=21	=21	=21	=21	=21	=21	=21
*	*Xtuplet	*	*	*	*	*
4.A\ 4.E\ 4.C\	12ee'\L	sf	2.r	.	.	.
.	(12gg#X\	.	.	.	.	.
.	12aa\J	.	.	.	.	.
.	8ccc'\)	.	.	.	.	.
8r	8r	.	.	.	.	.
4r	4r	.	.	.	.	.
=22	=22	=22	=22	=22	=22	=22
4.B\ 4.G\ 4.D\	12dd'\L	.	2.r	.	.	.
.	(12ff#\	.	.	.	.	.
.	12gg\J)	.	.	.	.	.
.	8bb\|	.	.	.	.	.
8r	8r	.	.	.	.	.
4r	4r	f	.	.	.	.
=23	=23	=23	=23	=23	=23	=23
4c\ 4A\ 4D\	12dd'\L	.	2.r	.	.	.
.	(12ff#\	.	.	.	.	.
.	12ee\J)	.	.	.	.	.
4c\ 4A\ 4D\	12dd'\L	.	.	.	.	.
.	(12cc\	.	.	.	.	.
.	12a\J)	.	.	.	.	.
.	(8qg/	.	.	.	.	.
4c\ 4A\ 4D\	12f#/L)	.	.	.	.	.
.	12e'/	.	.	.	.	.
.	12f#'/J	.	.	.	.	.
!!LO:LB:g=original
=24	=24	=24	=24	=24	=24	=24
8B\ 8G\	8g/	.	2.r	.	.	.
8r	8r	sf	.	.	.	.
4G/ 4GG/	4gg\ 4dd\ 4b\ 4g^<\	.	.	.	.	.
4r	4r	.	.	.	.	.
==	==	==	==	==	==	==
*-	*-	*-	*-	*-	*-	*-
!!!system-decoration: s1[(s2,s3)]
!!!RDF**kern: > = above
!!!RDF**kern: < = below
!!!RDF**kern: | = vertical stroke
!!!EED: Leszek Kubiak
!!!EEV: 2021-06-29
!!!ENC: Andrzej Gręziak
!!!END: 2021-06-22
!!!YEC: Copyright 2022 Narodowy Instytut Fryderyka Chopina (https://polishscores.org)
!!!YEM: License CC-BY-4.0 (https://creativecommons.org/licenses/by/4.0)
